!!!COM: Music21
!!!OTL: Jota
!!!OMV: pezas_jotas_jota-3_jota-partitura.musicxml
**kern
*part1
*staff1
*I"Bagpipes
*I'Bag
*clefG^2
*k[]
*M3/4
=1
!LO:TX:a:t=Prestissimo
*MM220
!LO:TX:a:t=[quarter]=220
4r
8ccL
8eeJ
8ccL
8eeJ
=||
4ccc
8bbL
8cccJ
8bbL
8cccJ
=
4gg
8ccL
8eeJ
8ccL
8eeJ
=
4ccc
8bbL
8cccJ
8bbL
8cccJ
=
4gg
8ccL
8eeJ
8ccL
8eeJ
=
4ccc
8bbL
8aaJ
8ggL
8ffJ
=
4ee
8ccL
8ddJ
8eeL
8ffJ
!!linebreak:original
=
8ggL
8ffJ
8eeL
8ffJ
8ggL
8eeJ
!!linebreak:original
=
8ddL
8ccJ
8bL
8ccJ
8ddL
8eeJ
=
8ffL
8eeJ
8ddL
8eeJ
8ffL
8ggJ
=
8eeL
8ddJ
8ccL
8ddJ
8eeL
8ffJ
=
8ggL
8ffJ
8eeL
8ffJ
8ggL
8eeJ
=
8ddL
8ccJ
8bL
8ccJ
8ddL
8eeJ
=
8ffL
8eeJ
8ddL
8ccJ
8bL
8ddJ
=
4cc
8ccL
8eeJ
8ccL
8eeJ
!!linebreak:original
=||
4ccc
8bbL
8cccJ
8bbL
8cccJ
=
4gg
8ccL
8eeJ
8ccL
8eeJ
=
4ccc
8bbL
8cccJ
8bbL
8cccJ
=
4gg
8ccL
8eeJ
8ccL
8eeJ
=
4ccc
8bbL
8aaJ
8ggL
8ffJ
=
4ee
8ccL
8ddJ
8eeL
8ffJ
=
8ggL
8ffJ
8eeL
8ffJ
8ggL
8eeJ
!!linebreak:original
=
8ddL
8ccJ
8bL
8ccJ
8ddL
8eeJ
=
8ffL
8eeJ
8ddL
8eeJ
8ffL
8ggJ
=
8eeL
8ddJ
8ccL
8ddJ
8eeL
8ffJ
=
8ggL
8ffJ
8eeL
8ffJ
8ggL
8eeJ
=
8ddL
8ccJ
8bL
8ccJ
8ddL
8eeJ
!!linebreak:original
=
8ffL
8eeJ
8ddL
8ccJ
8bL
8ddJ
=||
[2.cc
=
4cc]
4ee
8eeL
8eeJ
=||
4gg
12ggL
12aa
12ggJ
4ff
=
12ffL
12gg
12ffJ
4ee
12eeL
12ff
12eeJ
=
4dd
12ddL
12ee
12ddJ
[4cc
=
4cc]
4ee
8eeL
8eeJ
=||
4ff
12ffL
12gg
12ffJ
4ee
!!pagebreak:original
=
12eeL
12ff
12eeJ
4dd
12ddL
12ee
12ddJ
=
4cc
12ccL
12dd
12ccJ
[4b
=
4b]
4ee
8eeL
8eeJ
=
4gg
12ggL
12aa
12ggJ
4ff
=
12ffL
12gg
12ffJ
4ee
12eeL
12ff
12eeJ
=
4dd
12ddL
12ee
12ddJ
[4cc
=
4cc]
4ee
8eeL
8eeJ
=||
4ff
12ffL
12gg
12ffJ
4ee
!!linebreak:original
=
12eeL
12ff
12eeJ
4dd
12ddL
12ee
12ddJ
=
4cc
12ccL
12dd
12ccJ
[4b
=
4b]
4ee
8eeL
8eeJ
=
4gg
12ggL
12aa
12ggJ
4ff
=
12ffL
12gg
12ffJ
4ee
12eeL
12ff
12eeJ
=
4dd
12ddL
12ee
12ddJ
4cc
=
[2.cc
!!linebreak:original
=
4cc]
8ccL
8eeJ
8ccL
8eeJ
=||
[2.cc
=
8cc]
8r
2r
==
*-
!!!system-decoration: s1,s2
